icons/solid/chart-pie.svg

<svg width="24" height="24" viewBox="0 0 24 24" fill="none" xmlns="http://www.w3.org/2000/svg">
<path fill-rule="evenodd" clip-rule="evenodd" d="M12 21C7.02944 21 3 16.9706 3 12C3 7.75238 5.94256 4.14584 9.90041 3.19236C10.4796 3.05282 11 3.52085 11 4.11663V11C11 12.1046 11.8954 13 13 13H19.8834C20.4792 13 20.9472 13.5204 20.8076 14.0996C19.8542 18.0574 16.2476 21 12 21ZM15 4V9H20C19.6667 7.33333 18.2 4 15 4Z" fill="currentColor"/>
<path d="M9.90041 3.19236L10.1346 4.16454H10.1346L9.90041 3.19236ZM20.8076 14.0996L21.7798 14.3338V14.3338L20.8076 14.0996ZM15 9H14C14 9.55228 14.4477 10 15 10V9ZM15 4V3C14.4477 3 14 3.44771 14 4H15ZM20 9V10C20.2996 10 20.5834 9.86567 20.7733 9.63399C20.9633 9.4023 21.0393 9.09766 20.9806 8.80388L20 9ZM2 12C2 17.5228 6.47715 22 12 22V20C7.58172 20 4 16.4183 4 12H2ZM9.6662 2.22017C5.26441 3.28061 2 7.28491 2 12H4C4 8.21985 6.62071 5.01108 10.1346 4.16454L9.6662 2.22017ZM12 4.11663C12 2.96749 10.9625 1.90788 9.6662 2.22017L10.1346 4.16454C10.1192 4.16826 10.0942 4.1695 10.067 4.16248C10.0418 4.15599 10.0249 4.14515 10.0156 4.13713C9.99871 4.12261 10 4.11236 10 4.11663H12ZM12 11V4.11663H10V11H12ZM13 12C12.4477 12 12 11.5523 12 11H10C10 12.6569 11.3431 14 13 14V12ZM19.8834 12H13V14H19.8834V12ZM21.7798 14.3338C22.0921 13.0375 21.0325 12 19.8834 12V14C19.8876 14 19.8774 14.0013 19.8629 13.9844C19.8548 13.9751 19.844 13.9582 19.8375 13.933C19.8305 13.9058 19.8317 13.8808 19.8355 13.8654L21.7798 14.3338ZM12 22C16.7151 22 20.7194 18.7356 21.7798 14.3338L19.8355 13.8654C18.9889 17.3793 15.7802 20 12 20V22ZM16 9V4H14V9H16ZM20 8H15V10H20V8ZM15 5C16.2029 5 17.1045 5.61121 17.785 6.48806C18.4794 7.38295 18.8764 8.4811 19.0194 9.19611L20.9806 8.80388C20.7902 7.85223 20.2873 6.45038 19.365 5.26193C18.4288 4.05545 16.9971 3 15 3V5Z" fill="currentColor"/>
</svg>

<svg width="24" height="24" fill="none" xmlns="http://www.w3.org/2000/svg"><path fill-rule="evenodd" clip-rule="evenodd" d="M12 21a9 9 0 01-9-9c0-4.248 2.943-7.854 6.9-8.808.58-.14 1.1.329 1.1.925V11a2 2 0 002 2h6.883c.596 0 1.064.52.925 1.1-.954 3.957-4.56 6.9-8.808 6.9zm3-17v5h5c-.333-1.667-1.8-5-5-5z" fill="currentColor"/><path d="M9.9 3.192l.235.973-.235-.973zM20.808 14.1l.972.234-.972-.234zM15 9h-1a1 1 0 001 1V9zm0-5V3a1 1 0 00-1 1h1zm5 5v1a1 1 0 00.98-1.196L20 9zM2 12c0 5.523 4.477 10 10 10v-2a8 8 0 01-8-8H2zm7.666-9.78C5.264 3.28 2 7.285 2 12h2c0-3.78 2.62-6.989 6.135-7.835L9.666 2.22zM12 4.117c0-1.15-1.037-2.21-2.334-1.897l.469 1.945a.146.146 0 01-.12-.028C10 4.123 10 4.112 10 4.117h2zM12 11V4.117h-2V11h2zm1 1a1 1 0 01-1-1h-2a3 3 0 003 3v-2zm6.883 0H13v2h6.883v-2zm1.897 2.334c.312-1.296-.748-2.334-1.897-2.334v2c.005 0-.006.001-.02-.016a.145.145 0 01-.027-.119l1.944.469zM12 22c4.715 0 8.72-3.264 9.78-7.666l-1.945-.469C18.99 17.38 15.78 20 12 20v2zm4-13V4h-2v5h2zm4-1h-5v2h5V8zm-5-3c1.203 0 2.105.611 2.785 1.488.694.895 1.091 1.993 1.234 2.708l1.962-.392c-.19-.952-.694-2.354-1.616-3.542C18.429 4.055 16.997 3 15 3v2z" fill="currentColor"/></svg>
